src/plugins/give/assets/dist/images/anonymous-user.svg

<svg width="200" height="200" viewBox="0 0 200 200" fill="none" xmlns="http://www.w3.org/2000/svg">
<rect width="200" height="200" fill="white"/>
<circle cx="100" cy="100" r="100" fill="#E5E5E5"/>
<path d="M99.625 95C118.129 95 133.125 80.0035 133.125 61.5C133.125 42.9965 118.129 28 99.625 28C81.1215 28 66.125 42.9965 66.125 61.5C66.125 80.0035 81.1215 95 99.625 95ZM123.075 103.375H118.704C112.894 106.045 106.43 107.562 99.625 107.562C92.8203 107.562 86.382 106.045 80.5457 103.375H76.175C56.7555 103.375 41 119.13 41 138.55V149.438C41 156.373 64 179.5 99.625 178C140.963 176.259 158.25 156.373 158.25 149.438V138.55C158.25 119.13 142.495 103.375 123.075 103.375Z" fill="white"/>
</svg>

<svg width="200" height="200" fill="none" xmlns="http://www.w3.org/2000/svg"><path fill="#fff" d="M0 0h200v200H0z"/><circle cx="100" cy="100" r="100" fill="#E5E5E5"/><path d="M99.625 95c18.504 0 33.5-14.996 33.5-33.5 0-18.504-14.996-33.5-33.5-33.5-18.504 0-33.5 14.996-33.5 33.5 0 18.504 14.996 33.5 33.5 33.5zm23.45 8.375h-4.371a45.598 45.598 0 01-19.079 4.187c-6.805 0-13.243-1.517-19.08-4.187h-4.37C56.755 103.375 41 119.13 41 138.55v10.888C41 156.373 64 179.5 99.625 178c41.338-1.741 58.625-21.627 58.625-28.562V138.55c0-19.42-15.755-35.175-35.175-35.175z" fill="#fff"/></svg>
